X: 43
T: No_13_I_Feel_No_Fear.krn
%%abc-version 2.0
%%abcx-abcm2ps-target-version 5.9.1 (29 Sep 2008)
%%abc-creator hum2abc beta
%%abcx-conversion-date 2020/08/10 18:54:56
%%gracespace 0 6 6
%%humdrum-veritas 3825550240
%%humdrum-veritas-data 339665690
%%linebreak <none>
%%barnumbers 0
L: 1/8
M: 2/4
%%staves {1 2}
V: 1 clef=bass
V: 2 clef=bass
K: Db
[V:1] E/ [I:setbarnb 1]| 
[V:2] z/ | 
[V:1] E>FF2 | 
[V:2] !accent!G,,G,, !accent!G,,G,, | 
[V:1] F>EE2 | 
[V:2] !accent!G,,G,, !accent!G,,G,, | 
[V:1] E7/D/ | 
[V:2] z4 | 
[V:1] D>DD2 | 
[V:2] z4 | 
[V:1] B,>A,A,2 | 
[V:2] z4 | 
[V:1] A,7/A,/ | 
[V:2] z4 | 
[V:1] A,>A,A,2 | 
[V:2] z4 | 
[V:1] A,>A,A,2 | 
[V:2] z4 | 
[V:1] A,3A,/A,/ ||  
[V:2] z4 ||  
[V:1] [M:5/4]E2E>EEE (3EEE EE ||  
[V:2] [M:5/4]z8z2 ||  
[V:1] [M:2/4]E>DD2 | 
[V:2] [M:2/4]z4 | 
[V:1] D7/__B,/ | 
[V:2] z4 | 
[V:1] __B,>B,B,2 | 
[V:2] z4 | 
[V:1] __B,>B,A,2 | 
[V:2] z4 | 
[V:1] __B,7/B,/ | 
[V:2] z4 | 
[V:1] __B,>_CC2 | 
[V:2] z4 | 
[V:1] __B,>A,A,2 | 
[V:2] z4 | 
[V:1] A,7/E,/ | 
[V:2] z4 | 
[V:1] E,>F,F,2 | 
[V:2] z4 | 
[V:1] F,>E,E,2 | 
[V:2] z4 | 
[V:1] E,7/D,/ | 
[V:2] z4 | 
[V:1] D,>D,D,2 | 
[V:2] z4 | 
[V:1] B,,>A,,A,,2 | 
[V:2] z4 | 
[V:1] A,,4 |]  
[V:2] z4 |]  


